Newaita-dark/actions/32/gnumeric-format-thousand-separator.svg

<svg height="32" viewBox="0 0 32 32" width="32" xmlns="http://www.w3.org/2000/svg"><g fill="#e0e0e0"><path d="m7.609375 6.867188c-2.75 0-4.964844 2.210937-4.964844 4.960937v8.199219c0 2.746094 2.214844 4.960937 4.964844 4.960937 2.746094 0 4.960937-2.214843 4.960937-4.960937v-8.199219c0-2.75-2.214843-4.960937-4.960937-4.960937zm0 2.644531c1.28125 0 2.3125 1.03125 2.3125 2.316406v8.199219c0 1.28125-1.03125 2.3125-2.3125 2.3125-1.285156 0-2.316406-1.03125-2.316406-2.3125v-8.199219c0-1.285156 1.03125-2.316406 2.316406-2.316406zm0 0"/><path d="m15.214844 22.742188h1.324218c.363282 0 .660157.296874.660157.660156v1.324218c0 .363282-.296875.660157-.660157.660157h-1.324218c-.363282 0-.660156-.296875-.660156-.660157v-1.324218c0-.363282.296874-.660156.660156-.660156zm0 0"/><path d="m24.144531 6.867188c-2.746093 0-4.960937 2.210937-4.960937 4.960937v8.199219c0 2.746094 2.214844 4.960937 4.960937 4.960937 2.75 0 4.960938-2.214843 4.960938-4.960937v-8.199219c0-2.75-2.210938-4.960937-4.960938-4.960937zm0 2.644531c1.285157 0 2.316407 1.03125 2.316407 2.316406v8.199219c0 1.28125-1.03125 2.3125-2.316407 2.3125-1.28125 0-2.3125-1.03125-2.3125-2.3125v-8.199219c0-1.285156 1.03125-2.316406 2.3125-2.316406zm0 0"/></g></svg>

<svg xmlns="http://www.w3.org/2000/svg" xmlns:xlink="http://www.w3.org/1999/xlink" width="32px" height="32px" viewBox="0 0 32 32" version="1.1">
<g id="surface1">
     <defs>
  <style id="current-color-scheme" type="text/css">
   .ColorScheme-Text { color:#eeeeee; } .ColorScheme-Highlight { color:#424242; }
  </style>
 </defs>
<path style="fill:currentColor" class="ColorScheme-Text" d="M 7.609375 6.867188 C 4.859375 6.867188 2.644531 9.078125 2.644531 11.828125 L 2.644531 20.027344 C 2.644531 22.773438 4.859375 24.988281 7.609375 24.988281 C 10.355469 24.988281 12.570312 22.773438 12.570312 20.027344 L 12.570312 11.828125 C 12.570312 9.078125 10.355469 6.867188 7.609375 6.867188 Z M 7.609375 9.511719 C 8.890625 9.511719 9.921875 10.542969 9.921875 11.828125 L 9.921875 20.027344 C 9.921875 21.308594 8.890625 22.339844 7.609375 22.339844 C 6.324219 22.339844 5.292969 21.308594 5.292969 20.027344 L 5.292969 11.828125 C 5.292969 10.542969 6.324219 9.511719 7.609375 9.511719 Z M 7.609375 9.511719 "/>
     <defs>
  <style id="current-color-scheme" type="text/css">
   .ColorScheme-Text { color:#eeeeee; } .ColorScheme-Highlight { color:#424242; }
  </style>
 </defs>
<path style="fill:currentColor" class="ColorScheme-Text" d="M 15.214844 22.742188 L 16.539062 22.742188 C 16.902344 22.742188 17.199219 23.039062 17.199219 23.402344 L 17.199219 24.726562 C 17.199219 25.089844 16.902344 25.386719 16.539062 25.386719 L 15.214844 25.386719 C 14.851562 25.386719 14.554688 25.089844 14.554688 24.726562 L 14.554688 23.402344 C 14.554688 23.039062 14.851562 22.742188 15.214844 22.742188 Z M 15.214844 22.742188 "/>
     <defs>
  <style id="current-color-scheme" type="text/css">
   .ColorScheme-Text { color:#eeeeee; } .ColorScheme-Highlight { color:#424242; }
  </style>
 </defs>
<path style="fill:currentColor" class="ColorScheme-Text" d="M 24.144531 6.867188 C 21.398438 6.867188 19.183594 9.078125 19.183594 11.828125 L 19.183594 20.027344 C 19.183594 22.773438 21.398438 24.988281 24.144531 24.988281 C 26.894531 24.988281 29.105469 22.773438 29.105469 20.027344 L 29.105469 11.828125 C 29.105469 9.078125 26.894531 6.867188 24.144531 6.867188 Z M 24.144531 9.511719 C 25.429688 9.511719 26.460938 10.542969 26.460938 11.828125 L 26.460938 20.027344 C 26.460938 21.308594 25.429688 22.339844 24.144531 22.339844 C 22.863281 22.339844 21.832031 21.308594 21.832031 20.027344 L 21.832031 11.828125 C 21.832031 10.542969 22.863281 9.511719 24.144531 9.511719 Z M 24.144531 9.511719 "/>
</g>
</svg>
